X: 5
T: Bill Harte's
R: jig
M: 6/8
L: 1/8
K: Dmix
|: ~D3 ~A3|BAG ABA|~D3 ~A3|BAG EDC|
~D3 ~A3|BAG ABc|dcB cBA|1 BAG EGE:|2 BAG E2D||
|:deB ~c2A|BAG ABc|deB ~c2A|BAG EDC|
deB ~c2A|BAG ABc|deB c2A|1 BAG EDC:|2 BAG EGE||


Tune 2788	Setting 2788

